components/Common/Svg/svgs/opensenseTitleBorder.svg

<svg width="773" height="239" viewBox="0 0 773 239" fill="none" xmlns="http://www.w3.org/2000/svg"><path stroke="#13C0C0" stroke-width="3" d="M8.5 8.5h627v149H8.5z"/><path fill="#F0F4FF" stroke="#13C0C0" stroke-width="3" d="M1.5 1.5h14v14h-14z"/><path fill="#ECF2FF" stroke="#13C0C0" stroke-width="3" d="M1.5 150.5h14v14h-14z"/><path fill="#F8FAFF" stroke="#13C0C0" stroke-width="3" d="M628.5 150.5h14v14h-14zM628.5 1.5h14v14h-14z"/><g filter="url(#a)"><path d="m649.45 171.412 20.773 11.656-8.273 3.24-4.628 7.585-7.872-22.481Z" fill="#13C0C0"/><path d="m650.184 170.104-3.461-1.942 1.311 3.746 7.872 22.481 1.047 2.989 1.65-2.704 4.364-7.153 7.803-3.056 2.949-1.155-2.762-1.55-20.773-11.656Z" stroke="#fff" stroke-width="3"/></g><rect x="670" y="198" width="103" height="41" rx="2" fill="#13C0C0"/><path d="m696.605 210.32-5.52 10.632V227h-2.736v-6.048l-5.544-10.632h3.048l3.864 8.184 3.864-8.184h3.024Zm14.292 9.744c0 .496-.032.944-.096 1.344h-10.104c.08 1.056.472 1.904 1.176 2.544.704.64 1.568.96 2.592.96 1.472 0 2.512-.616 3.12-1.848h2.952c-.4 1.216-1.128 2.216-2.184 3-1.04.768-2.336 1.152-3.888 1.152-1.264 0-2.4-.28-3.408-.84a6.278 6.278 0 0 1-2.352-2.4c-.56-1.04-.84-2.24-.84-3.6 0-1.36.272-2.552.816-3.576.56-1.04 1.336-1.84 2.328-2.4 1.008-.56 2.16-.84 3.456-.84 1.248 0 2.36.272 3.336.816a5.746 5.746 0 0 1 2.28 2.304c.544.976.816 2.104.816 3.384Zm-2.856-.864c-.016-1.008-.376-1.816-1.08-2.424-.704-.608-1.576-.912-2.616-.912-.944 0-1.752.304-2.424.912-.672.592-1.072 1.4-1.2 2.424h7.32Zm8.284-9.96V227h-2.736v-17.76h2.736Zm6.328 0V227h-2.736v-17.76h2.736Zm9.328 17.976c-1.248 0-2.376-.28-3.384-.84a6.227 6.227 0 0 1-2.376-2.4c-.576-1.04-.864-2.24-.864-3.6 0-1.344.296-2.536.888-3.576a6.134 6.134 0 0 1 2.424-2.4c1.024-.56 2.168-.84 3.432-.84 1.264 0 2.408.28 3.432.84a6.134 6.134 0 0 1 2.424 2.4c.592 1.04.888 2.232.888 3.576 0 1.344-.304 2.536-.912 3.576a6.377 6.377 0 0 1-2.496 2.424c-1.04.56-2.192.84-3.456.84Zm0-2.376c.704 0 1.36-.168 1.968-.504.624-.336 1.128-.84 1.512-1.512.384-.672.576-1.488.576-2.448s-.184-1.768-.552-2.424c-.368-.672-.856-1.176-1.464-1.512a4.004 4.004 0 0 0-1.968-.504c-.704 0-1.36.168-1.968.504-.592.336-1.064.84-1.416 1.512-.352.656-.528 1.464-.528 2.424 0 1.424.36 2.528 1.08 3.312.736.768 1.656 1.152 2.76 1.152Zm27.329-11.064L755.206 227h-2.88l-2.664-9.768-2.664 9.768h-2.88l-4.128-13.224h2.784l2.76 10.632 2.808-10.632h2.856l2.688 10.584 2.736-10.584h2.688Z" fill="#fff"/><defs><filter id="a" x="635.995" y="160.911" width="49.219" height="51.952" color-interpolation-filters="sRGB"><feFlood flood-opacity="0" result="BackgroundImageFix"/><feColorMatrix in="SourceAlpha" values="0 0 0 0 0 0 0 0 0 0 0 0 0 0 0 0 0 0 127 0"/><feOffset dy="4"/><feGaussianBlur stdDeviation="4"/><feColorMatrix values="0 0 0 0 0 0 0 0 0 0 0 0 0 0 0 0 0 0 0.1 0"/><feBlend in2="BackgroundImageFix" result="effect1_dropShadow"/><feBlend in="SourceGraphic" in2="effect1_dropShadow" result="shape"/></filter></defs></svg>

<svg
  width="773"
  height="239"
  viewBox="0 0 773 239"
  fill="none"
  xmlns="http://www.w3.org/2000/svg"
>
  <rect
    x="8.5"
    y="8.5"
    width="627"
    height="149"
    stroke="#13C0C0"
    stroke-width="3"
  ></rect>
  <rect
    x="1.5"
    y="1.5"
    width="14"
    height="14"
    fill="#F0F4FF"
    stroke="#13C0C0"
    stroke-width="3"
  ></rect>
  <rect
    x="1.5"
    y="150.5"
    width="14"
    height="14"
    fill="#ECF2FF"
    stroke="#13C0C0"
    stroke-width="3"
  ></rect>
  <rect
    x="628.5"
    y="150.5"
    width="14"
    height="14"
    fill="#F8FAFF"
    stroke="#13C0C0"
    stroke-width="3"
  ></rect>
  <rect
    x="628.5"
    y="1.5"
    width="14"
    height="14"
    fill="#F8FAFF"
    stroke="#13C0C0"
    stroke-width="3"
  ></rect>
  <g filter="url(#filter0_d)">
    <path
      d="M649.45 171.412L670.223 183.068L661.95 186.308L657.322 193.893L649.45 171.412Z"
      fill="#13C0C0"
    ></path>
    <path
      d="M650.184 170.104L646.723 168.162L648.034 171.908L655.906 194.389L656.953 197.378L658.603 194.674L662.967 187.521L670.77 184.465L673.719 183.31L670.957 181.76L650.184 170.104Z"
      stroke="white"
      stroke-width="3"
    ></path>
  </g>
  <rect
    x="670"
    y="198"
    width="103"
    height="41"
    rx="2"
    fill="#13C0C0"
  ></rect>
  <path
    d="M696.605 210.32L691.085 220.952V227H688.349V220.952L682.805 210.32H685.853L689.717 218.504L693.581 210.32H696.605ZM710.897 220.064C710.897 220.56 710.865 221.008 710.801 221.408H700.697C700.777 222.464 701.169 223.312 701.873 223.952C702.577 224.592 703.441 224.912 704.465 224.912C705.937 224.912 706.977 224.296 707.585 223.064H710.537C710.137 224.28 709.409 225.28 708.353 226.064C707.313 226.832 706.017 227.216 704.465 227.216C703.201 227.216 702.065 226.936 701.057 226.376C700.065 225.8 699.281 225 698.705 223.976C698.145 222.936 697.865 221.736 697.865 220.376C697.865 219.016 698.137 217.824 698.681 216.8C699.241 215.76 700.017 214.96 701.009 214.4C702.017 213.84 703.169 213.56 704.465 213.56C705.713 213.56 706.825 213.832 707.801 214.376C708.777 214.92 709.537 215.688 710.081 216.68C710.625 217.656 710.897 218.784 710.897 220.064ZM708.041 219.2C708.025 218.192 707.665 217.384 706.961 216.776C706.257 216.168 705.385 215.864 704.345 215.864C703.401 215.864 702.593 216.168 701.921 216.776C701.249 217.368 700.849 218.176 700.721 219.2H708.041ZM716.325 209.24V227H713.589V209.24H716.325ZM722.653 209.24V227H719.917V209.24H722.653ZM731.981 227.216C730.733 227.216 729.605 226.936 728.597 226.376C727.589 225.8 726.797 225 726.221 223.976C725.645 222.936 725.357 221.736 725.357 220.376C725.357 219.032 725.653 217.84 726.245 216.8C726.837 215.76 727.645 214.96 728.669 214.4C729.693 213.84 730.837 213.56 732.101 213.56C733.365 213.56 734.509 213.84 735.533 214.4C736.557 214.96 737.365 215.76 737.957 216.8C738.549 217.84 738.845 219.032 738.845 220.376C738.845 221.72 738.541 222.912 737.933 223.952C737.325 224.992 736.493 225.8 735.437 226.376C734.397 226.936 733.245 227.216 731.981 227.216ZM731.981 224.84C732.685 224.84 733.341 224.672 733.949 224.336C734.573 224 735.077 223.496 735.461 222.824C735.845 222.152 736.037 221.336 736.037 220.376C736.037 219.416 735.853 218.608 735.485 217.952C735.117 217.28 734.629 216.776 734.021 216.44C733.413 216.104 732.757 215.936 732.053 215.936C731.349 215.936 730.693 216.104 730.085 216.44C729.493 216.776 729.021 217.28 728.669 217.952C728.317 218.608 728.141 219.416 728.141 220.376C728.141 221.8 728.501 222.904 729.221 223.688C729.957 224.456 730.877 224.84 731.981 224.84ZM759.31 213.776L755.206 227H752.326L749.662 217.232L746.998 227H744.118L739.99 213.776H742.774L745.534 224.408L748.342 213.776H751.198L753.886 224.36L756.622 213.776H759.31Z"
    fill="white"
  ></path>
  <defs>
    <filter
      id="filter0_d"
      x="635.995"
      y="160.911"
      width="49.2195"
      height="51.9517"
      filterUnits="userSpaceOnUse"
      color-interpolation-filters="sRGB"
    >
      <feFlood
        flood-opacity="0"
        result="BackgroundImageFix"
      ></feFlood>
      <feColorMatrix
        in="SourceAlpha"
        values="0 0 0 0 0 0 0 0 0 0 0 0 0 0 0 0 0 0 127 0"
      ></feColorMatrix>
      <feOffset dy="4"></feOffset>
      <feGaussianBlur stdDeviation="4"></feGaussianBlur>
      <feColorMatrix
        values="0 0 0 0 0 0 0 0 0 0 0 0 0 0 0 0 0 0 0.1 0"
      ></feColorMatrix>
      <feBlend
        in2="BackgroundImageFix"
        result="effect1_dropShadow"
      ></feBlend>
      <feBlend
        in="SourceGraphic"
        in2="effect1_dropShadow"
        result="shape"
      ></feBlend>
    </filter>
  </defs>
</svg>
